packages/tokens/icons/blog1/size32Px.svg

<svg xmlns="http://www.w3.org/2000/svg" fill="none" viewBox="0 0 32 32" width="1em" height="1em"><rect width="27" height="21" x="2.5" y="5.5" stroke="currentColor" rx="1.5"/><path stroke="currentColor" d="M3 9.5h26"/><circle cx="4.5" cy="7.5" r=".5" fill="currentColor"/><circle cx="6.5" cy="7.5" r=".5" fill="currentColor"/><circle cx="8.5" cy="7.5" r=".5" fill="currentColor"/><path stroke="currentColor" stroke-linecap="round" d="M18.5 13.5h7m-7 3h7m-7 3h5m-19 4H14m2 0h9.5"/><rect width="11" height="8" x="4.5" y="12.5" stroke="currentColor" rx="1.5"/><path stroke="currentColor" stroke-linejoin="round" d="M4.5 19 8 16l7 4"/><circle cx="12.5" cy="15.5" r="1" stroke="currentColor"/></svg>

<svg viewBox="0 0 32 32" fill="none" xmlns="http://www.w3.org/2000/svg" width="1em" height="1em"><rect x="2.5" y="5.5" width="27" height="21" rx="1.5" stroke="currentColor"/><line x1="3" y1="9.5" x2="29" y2="9.5" stroke="currentColor"/><circle cx="4.5" cy="7.5" r="0.5" fill="currentColor"/><circle cx="6.5" cy="7.5" r="0.5" fill="currentColor"/><circle cx="8.5" cy="7.5" r="0.5" fill="currentColor"/><path d="M18.5 13.5L25.5 13.5M18.5 16.5H25.5M18.5 19.5H23.5M4.5 23.5H14M16 23.5H25.5" stroke="currentColor" stroke-linecap="round"/><rect x="4.5" y="12.5" width="11" height="8" rx="1.5" stroke="currentColor"/><path d="M4.5 19L8 16L15 20" stroke="currentColor" stroke-linejoin="round"/><circle cx="12.5" cy="15.5" r="1" stroke="currentColor"/></svg>
